svg/http.svg

<?xml version="1.0" encoding="UTF-8"?>
<svg xmlns="http://www.w3.org/2000/svg" xmlns:xlink="http://www.w3.org/1999/xlink" width="32" height="32" viewBox="0 0 32 32">
<path fill-rule="nonzero" fill="rgb(20.392157%, 59.607846%, 85.882354%)" fill-opacity="1" d="M 16 2.667969 C 11.078125 2.667969 6.78125 5.355469 4.472656 9.332031 L 7.726562 9.332031 C 8.925781 7.851562 10.492188 6.675781 12.316406 6.003906 C 11.898438 6.972656 11.5625 8.105469 11.308594 9.332031 L 14.050781 9.332031 C 14.6875 6.699219 15.582031 5.332031 16 5.332031 C 16.417969 5.332031 17.3125 6.699219 17.949219 9.332031 L 20.691406 9.332031 C 20.4375 8.105469 20.101562 6.972656 19.683594 6.003906 C 21.503906 6.675781 23.074219 7.851562 24.273438 9.332031 L 27.527344 9.332031 C 25.21875 5.355469 20.921875 2.667969 16 2.667969 M 1.332031 12 L 2.988281 20 L 4.734375 20 L 5.867188 15.371094 L 6.996094 20 L 8.734375 20 L 10.390625 12 L 8.386719 12 L 7.667969 16.488281 L 6.605469 12 L 5.121094 12 L 4.050781 16.496094 L 3.34375 12 Z M 11.472656 12 L 13.128906 20 L 14.871094 20 L 16.003906 15.371094 L 17.136719 20 L 18.871094 20 L 20.527344 12 L 18.527344 12 L 17.808594 16.488281 L 16.746094 12 L 15.257812 12 L 14.191406 16.496094 L 13.480469 12 Z M 21.609375 12 L 23.265625 20 L 25.011719 20 L 26.144531 15.371094 L 27.273438 20 L 29.011719 20 L 30.667969 12 L 28.660156 12 L 27.945312 16.488281 L 26.878906 12 L 25.394531 12 L 24.328125 16.496094 L 23.621094 12 Z M 4.472656 22.667969 C 6.78125 26.644531 11.078125 29.332031 16 29.332031 C 20.921875 29.332031 25.21875 26.644531 27.527344 22.667969 L 24.273438 22.667969 C 23.074219 24.148438 21.507812 25.324219 19.683594 25.996094 C 20.101562 25.027344 20.433594 23.894531 20.691406 22.667969 L 17.949219 22.667969 C 17.308594 25.300781 16.414062 26.667969 15.996094 26.667969 C 15.582031 26.667969 14.6875 25.300781 14.050781 22.667969 L 11.308594 22.667969 C 11.5625 23.894531 11.898438 25.027344 12.316406 25.996094 C 10.496094 25.324219 8.925781 24.148438 7.726562 22.667969 Z M 4.472656 22.667969 "/>
</svg>

<svg role="img" viewBox="0 0 32 32" xmlns="http://www.w3.org/2000/svg"><path d="M16 2.668c-4.922 0-9.219 2.687-11.527 6.664h3.254c1.199-1.48 2.765-2.656 4.59-3.328-.419.969-.755 2.101-1.008 3.328h2.742c.636-2.633 1.531-4 1.949-4s1.313 1.367 1.95 4h2.741c-.253-1.227-.59-2.36-1.007-3.328 1.82.672 3.39 1.848 4.59 3.328h3.253C25.22 5.355 20.922 2.668 16 2.668M1.332 12l1.656 8h1.746l1.133-4.629L6.997 20h1.737l1.657-8H8.387l-.719 4.488L6.605 12H5.121l-1.07 4.496L3.344 12Zm10.14 0 1.657 8h1.742l1.133-4.629L17.137 20h1.734l1.656-8h-2l-.718 4.488L16.746 12h-1.488l-1.067 4.496-.71-4.496Zm10.137 0 1.657 8h1.746l1.133-4.629L27.273 20h1.739l1.656-8H28.66l-.715 4.488L26.88 12h-1.484l-1.067 4.496L23.621 12ZM4.473 22.668C6.78 26.645 11.078 29.332 16 29.332s9.219-2.687 11.527-6.664h-3.254c-1.199 1.48-2.765 2.656-4.59 3.328.419-.969.75-2.101 1.008-3.328H17.95c-.64 2.633-1.535 4-1.953 4-.414 0-1.309-1.367-1.945-4H11.31c.254 1.227.59 2.36 1.007 3.328-1.82-.672-3.39-1.848-4.59-3.328Zm0 0" fill="rgb(20.392157%, 59.607846%, 85.882354%)"/></svg>
